X: 1
T:Gravel Walks Jig
C:Cathal McConnell
R:jig
H:Cathal McConnell transformed the reel "The Gravel Walks" (reel#60)
H:into a jig, which originally had 4 parts. Only two of them here.
Z:id:hn-jig-237
M:6/8
K:Amix
A2e cAA|~A3 dBG|A2e cee|g2e dBG|
A2e cAA|~A3 dBG|ABc def|g2e dBG:|
|:A2a gAf|AeA dBG|A2a gef|~g3 dBG|
A2a gAf|AeA dBG|ABc def|~g3 dBG:|
